assets/Thinking face/Flat/thinking_face_flat.svg

<svg width="32" height="32" viewBox="0 0 32 32" fill="none" xmlns="http://www.w3.org/2000/svg">
<path d="M15.9989 29.9978C25.3333 29.9978 29.9978 23.7303 29.9978 15.9989C29.9978 8.26751 25.3333 2 15.9989 2C6.66443 2 2 8.26751 2 15.9989C2 23.7303 6.66443 29.9978 15.9989 29.9978Z" fill="#FFB02E"/>
<path d="M9.99994 21.5V18.4393C9.99994 17.6444 9.35554 17 8.56062 17C7.71987 17 7.05542 17.7181 7.04316 18.5588C7.02329 19.9202 6.8351 21.7216 5.99995 22C2.99985 23 1.99999 27.5 4.49994 29.5C6.5 31.1001 8.49994 31 9.99994 31H12.7639C13.4465 31 13.9999 30.4466 13.9999 29.7639C13.9999 29.2957 13.7354 28.8677 13.3167 28.6584L12.9999 28.5H13.7192C14.1781 28.5 14.5781 28.1877 14.6894 27.7425L14.7574 27.4701C14.8806 26.9774 14.5079 26.5 13.9999 26.5L14.3291 26.3354C14.7402 26.1298 14.9999 25.7096 14.9999 25.25C14.9999 24.7904 14.7402 24.3702 14.3291 24.1646L13.9999 24H15.7499C16.4403 24 16.9999 23.4404 16.9999 22.75C16.9999 22.0596 16.4403 21.5 15.7499 21.5H9.99994Z" fill="#FFB02E"/>
<path d="M10.4191 16.2244C12.742 16.2244 14.6251 14.3414 14.6251 12.0185C14.6251 9.69557 12.742 7.8125 10.4191 7.8125C8.09621 7.8125 6.21313 9.69557 6.21313 12.0185C6.21313 14.3414 8.09621 16.2244 10.4191 16.2244Z" fill="white"/>
<path d="M21.5683 16.3011C23.9123 16.3011 25.8126 14.4009 25.8126 12.0568C25.8126 9.71274 23.9123 7.8125 21.5683 7.8125C19.2242 7.8125 17.324 9.71274 17.324 12.0568C17.324 14.4009 19.2242 16.3011 21.5683 16.3011Z" fill="white"/>
<path d="M9.99994 21.5V18.4393C9.99994 17.6444 9.35554 17 8.56062 17C7.71987 17 7.05542 17.7181 7.04316 18.5588C7.02329 19.9202 6.8351 21.7216 5.99995 22C2.99985 23 1.99999 27.5 4.49994 29.5C6.5 31.1001 8.49994 31 9.99994 31H12.7639C13.4465 31 13.9999 30.4466 13.9999 29.7639C13.9999 29.2957 13.7354 28.8677 13.3167 28.6584L12.9999 28.5H13.7192C14.1781 28.5 14.5781 28.1877 14.6894 27.7425L14.7574 27.4701C14.8806 26.9774 14.5079 26.5 13.9999 26.5L14.3291 26.3354C14.7402 26.1298 14.9999 25.7096 14.9999 25.25C14.9999 24.7904 14.7402 24.3702 14.3291 24.1646L13.9999 24H15.7499C16.4403 24 16.9999 23.4404 16.9999 22.75C16.9999 22.0596 16.4403 21.5 15.7499 21.5H9.99994Z" fill="#FF822D"/>
<path d="M7.14645 4.14645C7.54338 3.74951 8.63008 3 10 3C11.3699 3 12.4566 3.74951 12.8536 4.14645C13.0488 4.34171 13.0488 4.65829 12.8536 4.85355C12.6583 5.04882 12.3417 5.04882 12.1464 4.85355C11.8767 4.58382 11.0301 4 10 4C8.96992 4 8.12329 4.58382 7.85355 4.85355C7.65829 5.04882 7.34171 5.04882 7.14645 4.85355C6.95118 4.65829 6.95118 4.34171 7.14645 4.14645Z" fill="#402A32"/>
<path d="M18.1799 8.11589C18.6506 7.72368 19.9203 7 21.5 7C23.0797 7 24.3494 7.72368 24.8201 8.11589C25.0322 8.29267 25.0609 8.60795 24.8841 8.82009C24.7073 9.03223 24.392 9.06089 24.1799 8.88411C23.8506 8.60966 22.8003 8 21.5 8C20.1997 8 19.1494 8.60966 18.8201 8.88411C18.608 9.06089 18.2927 9.03223 18.1159 8.82009C17.9391 8.60795 17.9678 8.29267 18.1799 8.11589Z" fill="#402A32"/>
<path d="M13 11.5C13 13.1569 11.6569 14.5 10 14.5C8.34315 14.5 7 13.1569 7 11.5C7 9.84315 8.34315 8.5 10 8.5C11.6569 8.5 13 9.84315 13 11.5Z" fill="#402A32"/>
<path d="M24 11.5C24 13.1569 22.6569 14.5 21 14.5C19.3431 14.5 18 13.1569 18 11.5C18 9.84315 19.3431 8.5 21 8.5C22.6569 8.5 24 9.84315 24 11.5Z" fill="#402A32"/>
<path d="M16.0815 18.9857C14.9113 18.7857 14.062 19.3522 13.7071 19.7071C13.3166 20.0976 12.6834 20.0976 12.2929 19.7071C11.9024 19.3166 11.9024 18.6834 12.2929 18.2929C12.938 17.6478 14.4052 16.6701 16.4185 17.0143C18.3815 17.3499 19.3924 18.4706 19.907 19.5789C20.1396 20.0798 19.922 20.6744 19.4211 20.907C18.9202 21.1396 18.3256 20.922 18.093 20.4211C17.8123 19.8165 17.302 19.1944 16.0815 18.9857Z" fill="#402A32"/>
</svg>

<svg xmlns="http://www.w3.org/2000/svg" width="32" height="32" fill="none"><path fill="#FFB02E" d="M15.999 29.998c9.334 0 13.999-6.268 13.999-14 0-7.73-4.665-13.998-14-13.998C6.665 2 2 8.268 2 15.999c0 7.731 4.664 13.999 13.999 13.999Z"/><path fill="#FFB02E" d="M10 21.5v-3.06A1.44 1.44 0 0 0 8.56 17c-.84 0-1.505.718-1.517 1.559C7.023 19.92 6.835 21.722 6 22c-3 1-4 5.5-1.5 7.5 2 1.6 4 1.5 5.5 1.5h2.764a1.236 1.236 0 0 0 .553-2.342L13 28.5h.72a1 1 0 0 0 .97-.758l.067-.272A.78.78 0 0 0 14 26.5l.33-.165a1.214 1.214 0 0 0 0-2.17L14 24h1.75a1.25 1.25 0 1 0 0-2.5H10Z"/><path fill="#fff" d="M10.42 16.224a4.206 4.206 0 1 0 0-8.411 4.206 4.206 0 0 0 0 8.411ZM21.568 16.301a4.244 4.244 0 1 0 0-8.489 4.244 4.244 0 0 0 0 8.49Z"/><path fill="#FF822D" d="M10 21.5v-3.06A1.44 1.44 0 0 0 8.56 17c-.84 0-1.505.718-1.517 1.559C7.023 19.92 6.835 21.722 6 22c-3 1-4 5.5-1.5 7.5 2 1.6 4 1.5 5.5 1.5h2.764a1.236 1.236 0 0 0 .553-2.342L13 28.5h.72a1 1 0 0 0 .97-.758l.067-.272A.78.78 0 0 0 14 26.5l.33-.165a1.214 1.214 0 0 0 0-2.17L14 24h1.75a1.25 1.25 0 1 0 0-2.5H10Z"/><path fill="#402A32" d="M7.146 4.146C7.543 3.75 8.63 3 10 3s2.457.75 2.854 1.146a.5.5 0 0 1-.708.708C11.876 4.584 11.03 4 10 4c-1.03 0-1.877.584-2.146.854a.5.5 0 1 1-.708-.708ZM18.18 8.116C18.65 7.724 19.92 7 21.5 7c1.58 0 2.85.724 3.32 1.116a.5.5 0 0 1-.64.768C23.85 8.61 22.8 8 21.5 8c-1.3 0-2.35.61-2.68.884a.5.5 0 0 1-.64-.768ZM13 11.5a3 3 0 1 1-6 0 3 3 0 0 1 6 0Z"/><path fill="#402A32" d="M24 11.5a3 3 0 1 1-6 0 3 3 0 0 1 6 0ZM16.081 18.986c-1.17-.2-2.019.366-2.374.721a1 1 0 0 1-1.414-1.414 4.732 4.732 0 0 1 4.126-1.279c1.962.336 2.973 1.457 3.488 2.565a1 1 0 0 1-1.814.842c-.28-.604-.791-1.227-2.012-1.435Z"/></svg>
